X:1
T:Title
%%score ( 1 2 ) ( 3 4 )
L:1/8
Q:1/4=95
M:4/4
K:A
V:1 treble nm="Grand Piano, Soprano"
V:2 treble 
V:3 bass nm="Choir Pad, Stand for God and Right"
V:4 bass 
V:1
 [A,C]>[B,D] [CE]>[DF] [CE]2 [CA]2 | [Ec]>[EA] [FB]>[FA] [DF]4 | [DG]>[DG] [DF]>[DE] [DB]2 [Ed]2 | %3
w: By~Thoro~Harris * * * * *|||
 [Ec]6 z2 | [A,C]>[B,D] [CE]>[DF] [CE]2 [CA]2 | [Ec]>[EA] [FB]>[FA] [DF]4 | %6
w: |||
 [DG]>[DG] [DF]>[DE] [Ec]2 [DB]2 | [CA]6 z2 | [DF]>[Fd] [Fd]>[Gd] .[Fd]4 | %9
w: |||
 [CE]>[Ec] [Ec]>[Fc] .[Ec]4 | z4 z2 .c2 | e6 z2 | [Ec]2 [CA][DB] [Ec]2 [Fd][=Gc] | %13
w: ||||
 [FB]2 [DF][FB] [Fd]2 [Fc][FB] | [Ee][Ec][CA][Fd] [Ec]2 [DB]2 | [CA]8 |] %16
w: |||
V:2
 x8 | x8 | x8 | x8 | x8 | x8 | x8 | x8 | x8 | x8 | [GB]>[=G^A] [^GB]>[=Ge] [F^d]2 A-[AB] | %11
 G2 A^A B2 [Ed]2 | x8 | x8 | x8 | x8 |] %16
V:3
 [A,,E,]>[A,,E,] [A,,A,]>[A,,A,] [A,,A,]2 [A,,E,]2 | [A,,A,]>[C,A,] [D,A,]>[D,A,] A,2 C2 | %2
 [E,B,]>[E,B,] [E,A,]>[E,G,] [E,G,]2 [E,B,]2 | A,6 z2 | %4
 [A,,E,]>[A,,E,] [A,,A,]>[A,,A,] [A,,A,]2 [A,,E,]2 | [A,,A,]>[C,A,] [D,A,]>[D,A,] [D,A,]4 | %6
 E,>[E,B,] [E,A,]>[E,G,] [E,F,]2 [E,G,]2 | [A,,A,]6 z2 | z4 [D,A,]>[E,A,] [F,A,]>[G,B,] | %9
 [A,C]2 z2 [A,,A,]>[C,A,] [E,A,]>A, | [B,E]>[CE] [B,E]>B, [B,,B,]2 [^D,B,]2 | B,2 =C^C D2 [E,G,]2 | %12
 [A,,A,]2 [A,,E,][A,,E,] [A,,A,]2 [A,,A,][A,,A,] | [D,A,]2 [D,A,][D,A,] [D,A,]2 [D,A,][D,A,] | %14
 [C,A,][E,G,][F,A,][D,A,] [E,A,]2 [E,G,]2 | [A,,A,]8 |] %16
V:4
 x8 | z4 D,4 | x8 | x8 | x8 | x8 | x8 | x8 | x8 | x8 | x8 | E,6 z2 | x8 | x8 | x8 | x8 |] %16

